!!!OTL: 687. Kartoffel-Lied.
!!!ODT: 1840 (um)
!!!ARE: Europa, Mitteleuropa, Deutschland, Weimar
!!!SCT: B0687
!!!TXL: @@DE
!!!YEM: Copyright 1995, estate of Helmut Schaffrath.
**kern	**text
*ICvox	*
*Ivox	*
*clefG2	*
*M2/4	*
*k[f#c#]	*
*D:	*
!LO:TX:a:t=Heiter.	!
{8a	Her-
=1	=1
8f#	-bei,
8a	her-
8a	-bei
8a	ʒu
=2	=2
8f#	mei-
8a	-nem
8a}	Sang,
{8a	Hans
=3	=3
8dd	Gör-
8cc#	-gel,
8b	Mi-
8a	-chel,
=4	=4
4a	Stof-
8g}	-fel,
{8g	und
=5	=5
8e	fingt
8g	mit
8g	mir
8g	das
=6	=6
8e	fro-
8g	-he
8g}	Lied
{8g	dem
=7	=7
8cc#	Stif-
8b	-ter
8a	der
8g	Kar-
=8	=8
4g	-tof-
8f#}	-fel!
{8a	Franʒ
=9	=9
8f#	Dra-
8a	-te
8a	hieß
8a	der
=10	=10
8f#	bra-
8a	-de
8a}	Mann,
{8a	der
=11	=11
8dd	vor
8cc#	ʒwei-
8b	-hun-
8a	-dert
=12	=12
4a	Jah-
8g}	-ren
{8g	von
=13	=13
8e	Eng-
8g	-land
8g	nach
8g	A-
=14	=14
8e	-me-
8g	-ri-
8g}	-ka
{8g	als
=15	=15
8cc#	Ka-
8b	-pi-
8a	-tän
8g	ge-
=16	=16
4g	-fah-
8f#	-ren.
8r}	.
=17	=17
!LO:TX:a:t=Bei Wiederholung im Chor geſungen.	!
{4dd^^	Hi-
4dd^^	-ha,
=18	=18
8b^^	hop-
8g^^	-ſa-
4g^^}	-ſa!
=19	=19
{8b	va-
8g	-la-
8dd	-dri,
8b	vi-
=20	=20
8b	-tral-
8a	-la-
8a}	-la!
{8a	von
=21	=21
8a	Eng-
8g	-land
8b	nach
8g	A-
=22	=22
8.g	-me-
16f#	-ri-
8f#}	-ka
{8f#	als
=23	=23
8f#	Ka-
8e	-pi-
8g	-tän
8c#	ge-
=24	=24
4e	-fah-
8d	-ren.
8r}	.
=25	=25
{4dd^^	Hi-
4dd^^	-ha,
=26	=26
8b^^	hop-
8g^^	-ſa-
4g^^}	-ſa!
=27	=27
{8b	va-
8g	-la-
8dd	-dri,
8b	vi-
=28	=28
8b	-tral-
8a	-la-
8a}	-la!
{8a	von
=29	=29
8a	Eng-
8g	-land
8b	nach
8g	A-
=30	=30
8.g	-me-
16f#	-ri-
8f#}	-ka
{8f#	als
=31	=31
8f#	Ka-
8e	-pi-
8g	-tän
8c#	ge-
=32	=32
4e	-fah-
8d}	-ren.
==	==
!!!AGN: Drehorgel -, Erzaehl -, Scherz - Lied
!!!GTL: Scherzlieder und Gemischtes
!!!ONB: ESAC (Essen Associative Code) Database: BOEHME
!!!AMT: simple duple
!!!AIN: vox
!!!EED: Helmut Schaffrath
!!!EEV: 1.0
!!Mel. um 1840 sehr beliebt, auf Drehorgeln gehoert.
!!@@COMMENT:"Text nach einem fl. Bl. , um 1840 vermuthlich in Halle 
!!oder Leipʒig gedruckt. Die Melodie hörte ich 1842 in Weimar ʒum Jahrmarkt von Drehorglern. 
!!Auch fand ich ſie im "Preuß. Soldatenliederbuch" 1881 S. 128 ʒum alten Liede: 
!!"Kein beſſer Leben iſt fürwahr auf dieſer Welt ʒu denken, als wenn man luſtig trinkt und ißt und läßt ſich gar nichts kränken"."
!!@@END:
!!!URL-scan: https://archive.org/details/BoehmeVtLieder1895/page/n539/mode/2up
!!!ENC: Anna Maria Matuszewska
!!!EEV: 2024/17/07
*-	*-
